X: 432
T:Headwood Crossing
M:6/8
L:1/8
R:Jig
N:Posted to the woodenflute mailing list August 2001
Z:Pat Higgins
Z:abc headers added Steve Mansfield
K:G % Am or something ( Anyway all C's are Nat. )
|CGE G3|AGE G3|CGE G3|A3 dcB|
|CGE G2E|A2E G3|(Bcde g2g|eae ged:||
|(Bcde g2g|eae ged|(Bcde ged|CGE GAB|
|(Bcde g3|eae gab|a3 ged|eae ged:||
<end>
<start>
